X:125
T:Rebecca
C:Herschel Sizemore
M:4/4
L:1/8
Q:1/8=500
K:B
BF2B2d2|:effg f2f=g|gbgf e2e2|cdfb gfdg|fdcB F2Bc|
cfcd [f2c2]fd|c=ABc ^AFA=D|EF=G^G BdcB|z4 GFE=D|
F2BF FBF2|1 B=DFG Bcd2:|2 BFB=A ^AGBG|
c2e2 c2e2|dec=A ^AAe2|EF=G^G B=dcB|z4 GFE=D|1 F2BF FBF2:|2 c2fc cfc2|
fcb2 g2f2|Bc=d^d f2f=g|=z4GFE2|z2F2 G2F2|
F=DC2 [FC]^D3|
